X: 112203
T: BIG KIRSTY
Q: "Strathspey."
R:  Strathspey.
%R: strathspey
B: James Kerr "Merry Melodies" v.1 p.12 s.2 #3
Z: 2017 John Chambers <jc:trillian.mit.edu>
M: C
L: 1/8
K: Em
uB |\
ve>vfug>ue vd>vB (3(Bcd) | c>A (3(ABc) d>BB>d |\
e>fg>e d>B (3(Bcd) | c>AB>G E2-E ::\
uD |\
G>AB>c d>B (3(Bcd) | c>A (3(ABc) d>BB>A |
G>AB>c d>B (3(Bcd) |[1 c>AB>G E2-E :|[2 c>AB>^d e2-e ||\
|: (vf |\
g2) uf>ue (d<B) (3(Bcd) | (c<A) (3(ABc) (d<B) (B<d) |
g2 uf>ue (d<B) (3(Bcd) | vc>vAuB>uG E2-E ::\
uD |\
G>AB>c (d<B) (3(Bcd) | (c<A) (3(ABc) (d<B) uB>uA |\
G>AB>c (d<B) (3(Bcd) | c>AB>G E2-E :|

%%sep 1 1 500
%%sep 1 1 500

